src/assets/icons/media-reading-writing,fancy,book.svg

<svg width="48" height="48" viewBox="0 0 48 48" fill="none" xmlns="http://www.w3.org/2000/svg">
<path opacity="0.2" fill-rule="evenodd" clip-rule="evenodd" d="M6.17157 6.17157C5 7.34315 5 9.22876 5 13V35C5 38.7712 5 40.6569 6.17157 41.8284C7.34315 43 9.22876 43 13 43H35C38.7712 43 40.6569 43 41.8284 41.8284C43 40.6569 43 38.7712 43 35V13C43 9.22876 43 7.34315 41.8284 6.17157C40.6569 5 38.7712 5 35 5H13C9.22876 5 7.34315 5 6.17157 6.17157ZM11.2929 12.2929C11 12.5858 11 13.0572 11 14V15C11 15.9428 11 16.4142 11.2929 16.7071C11.5858 17 12.0572 17 13 17H29C29.9428 17 30.4142 17 30.7071 16.7071C31 16.4142 31 15.9428 31 15V14C31 13.0572 31 12.5858 30.7071 12.2929C30.4142 12 29.9428 12 29 12H13C12.0572 12 11.5858 12 11.2929 12.2929ZM14 19C13.4477 19 13 19.4477 13 20C13 20.5523 13.4477 21 14 21H28C28.5523 21 29 20.5523 29 20C29 19.4477 28.5523 19 28 19H14Z" fill="black"/>
<g opacity="0.2">
<path d="M11 14C11 13.0572 11 12.5858 11.2929 12.2929C11.5858 12 12.0572 12 13 12H29C29.9428 12 30.4142 12 30.7071 12.2929C31 12.5858 31 13.0572 31 14V15C31 15.9428 31 16.4142 30.7071 16.7071C30.4142 17 29.9428 17 29 17H13C12.0572 17 11.5858 17 11.2929 16.7071C11 16.4142 11 15.9428 11 15V14Z" fill="black"/>
<path d="M13 20C13 19.4477 13.4477 19 14 19H28C28.5523 19 29 19.4477 29 20C29 20.5523 28.5523 21 28 21H14C13.4477 21 13 20.5523 13 20Z" fill="black"/>
</g>
<rect opacity="0.2" x="9" y="5" width="34" height="38" rx="4" fill="black"/>
<path fill-rule="evenodd" clip-rule="evenodd" d="M32 43H35C38.7712 43 40.6569 43 41.8284 41.8284C43 40.6569 43 38.7712 43 35V13C43 9.22876 43 7.34315 41.8284 6.17157C40.6569 5 38.7712 5 35 5H32C35.7712 5 37.6569 5 38.8284 6.17157C40 7.34315 40 9.22876 40 13V35C40 38.7712 40 40.6569 38.8284 41.8284C37.6569 43 35.7712 43 32 43Z" fill="black"/>
<path fill-rule="evenodd" clip-rule="evenodd" d="M5 13C5 9.22876 5 7.34315 6.17157 6.17157C7.34315 5 9.22876 5 13 5H29C32.7712 5 34.6569 5 35.8284 6.17157C37 7.34315 37 9.22876 37 13V35C37 38.7712 37 40.6569 35.8284 41.8284C34.6569 43 32.7712 43 29 43H13C9.22876 43 7.34315 43 6.17157 41.8284C5 40.6569 5 38.7712 5 35V13ZM11 14C11 13.0572 11 12.5858 11.2929 12.2929C11.5858 12 12.0572 12 13 12H29C29.9428 12 30.4142 12 30.7071 12.2929C31 12.5858 31 13.0572 31 14V15C31 15.9428 31 16.4142 30.7071 16.7071C30.4142 17 29.9428 17 29 17H13C12.0572 17 11.5858 17 11.2929 16.7071C11 16.4142 11 15.9428 11 15V14ZM14 19C13.4477 19 13 19.4477 13 20C13 20.5523 13.4477 21 14 21H28C28.5523 21 29 20.5523 29 20C29 19.4477 28.5523 19 28 19H14Z" fill="black"/>
</svg>

<svg xmlns="http://www.w3.org/2000/svg" width="48" height="48" fill="none" viewBox="0 0 48 48">
  <path fill="#000" fill-rule="evenodd" d="M6.172 6.172C5 7.343 5 9.229 5 13v22c0 3.771 0 5.657 1.172 6.828C7.343 43 9.229 43 13 43h22c3.771 0 5.657 0 6.828-1.172C43 40.657 43 38.771 43 35V13c0-3.771 0-5.657-1.172-6.828C40.657 5 38.771 5 35 5H13C9.229 5 7.343 5 6.172 6.172zm5.12 6.12C11 12.587 11 13.058 11 14v1c0 .943 0 1.414.293 1.707.293.293.764.293 1.707.293h16c.943 0 1.414 0 1.707-.293C31 16.414 31 15.943 31 15v-1c0-.943 0-1.414-.293-1.707C30.414 12 29.943 12 29 12H13c-.943 0-1.414 0-1.707.293zM14 19a1 1 0 100 2h14a1 1 0 100-2H14z" clip-rule="evenodd" opacity=".2"/>
  <g opacity=".2">
    <path fill="#000" d="M11 14c0-.943 0-1.414.293-1.707C11.586 12 12.057 12 13 12h16c.943 0 1.414 0 1.707.293.293.293.293.764.293 1.707v1c0 .943 0 1.414-.293 1.707C30.414 17 29.943 17 29 17H13c-.943 0-1.414 0-1.707-.293C11 16.414 11 15.943 11 15v-1zM13 20a1 1 0 011-1h14a1 1 0 110 2H14a1 1 0 01-1-1z"/>
  </g>
  <rect width="34" height="38" x="9" y="5" fill="#000" opacity=".2" rx="4"/>
  <path fill="#000" fill-rule="evenodd" d="M32 43h3c3.771 0 5.657 0 6.828-1.172C43 40.657 43 38.771 43 35V13c0-3.771 0-5.657-1.172-6.828C40.657 5 38.771 5 35 5h-3c3.771 0 5.657 0 6.828 1.172C40 7.343 40 9.229 40 13v22c0 3.771 0 5.657-1.172 6.828C37.657 43 35.771 43 32 43z" clip-rule="evenodd"/>
  <path fill="#000" fill-rule="evenodd" d="M5 13c0-3.771 0-5.657 1.172-6.828C7.343 5 9.229 5 13 5h16c3.771 0 5.657 0 6.828 1.172C37 7.343 37 9.229 37 13v22c0 3.771 0 5.657-1.172 6.828C34.657 43 32.771 43 29 43H13c-3.771 0-5.657 0-6.828-1.172C5 40.657 5 38.771 5 35V13zm6 1c0-.943 0-1.414.293-1.707C11.586 12 12.057 12 13 12h16c.943 0 1.414 0 1.707.293.293.293.293.764.293 1.707v1c0 .943 0 1.414-.293 1.707C30.414 17 29.943 17 29 17H13c-.943 0-1.414 0-1.707-.293C11 16.414 11 15.943 11 15v-1zm3 5a1 1 0 100 2h14a1 1 0 100-2H14z" clip-rule="evenodd"/>
</svg>
